;FLAVOR:Marlin
;TIME:3467
;Filament used: 2.57234m
;Layer height: 0.2
;MINX:72.71
;MINY:74.026
;MINZ:0.2
;MAXX:147.29
;MAXY:143.506
;MAXZ:10
;Generated with Creality Slicer 4.8.2-291
M140 S60
M105
M190 S60
M104 S200
M105
M109 S200
M82 ;absolute extrusion mode

G28 ;Home

G92 E0 ;Reset Extruder
G1 Z2.0 F3000 ;Move Z Axis up
G1 X10.1 Y20 Z0.28 F5000.0 ;Move to start position
G1 X10.1 Y200.0 Z0.28 F1500.0 E15 ;Draw the first line
G1 X10.4 Y200.0 Z0.28 F5000.0 ;Move to side a little
G1 X10.4 Y20 Z0.28 F1500.0 E30 ;Draw the second line
G92 E0 ;Reset Extruder
G1 Z2.0 F3000 ;Move Z Axis up

G92 E0
G92 E0
G1 F1500 E-4
;LAYER_COUNT:50
;LAYER:0
M107
G0 F6000 X83.736 Y79.73 Z0.2
;TYPE:SKIRT
G1 F1500 E0
G1 F1200 X84.065 Y79.407 E0.01533
G1 X85.348 Y78.223 E0.0734
G1 X85.693 Y77.923 E0.08861
G1 X87.042 Y76.817 E0.14663
G1 X87.41 Y76.533 E0.16209
G1 X88.823 Y75.509 E0.22013
G1 X89.485 Y75.079 E0.24638
G1 X90.187 Y74.717 E0.27265
G1 X90.922 Y74.429 E0.29891
G1 X91.683 Y74.216 E0.32519
G1 X92.461 Y74.082 E0.35145
G1 X93.249 Y74.026 E0.37773
G1 X94.038 Y74.051 E0.40398
G1 X94.821 Y74.155 E0.43025
G1 X95.589 Y74.338 E0.45651
G1 X96.335 Y74.598 E0.48279
G1 X97.05 Y74.932 E0.50904
G1 X97.729 Y75.336 E0.53531
G1 X98.363 Y75.807 E0.56158
G1 X98.946 Y76.34 E0.58786
G1 X99.472 Y76.929 E0.61412
G1 X99.936 Y77.568 E0.64039
G1 X100.333 Y78.25 E0.66663
G1 X100.659 Y78.97 E0.69292
G1 X100.91 Y79.718 E0.71916
G1 X101.085 Y80.488 E0.74543
G1 X101.18 Y81.272 E0.77169
G1 X101.2 Y81.825 E0.7901
G1 X101.2 Y95.979 E1.26086
G1 X101.16 Y96.768 E1.28714
G1 X101.041 Y97.548 E1.31338
G1 X100.843 Y98.313 E1.33966
G1 X100.569 Y99.053 E1.36591
G1 X100.182 Y99.832 E1.39484
G1 X99.629 Y100.805 E1.43206
G1 X99.268 Y101.565 E1.46005
G1 X98.958 Y102.357 E1.48834
G1 X98.712 Y103.152 E1.51601
G1 X98.517 Y103.988 E1.54457
G1 X98.389 Y104.808 E1.57217
G1 X98.318 Y105.643 E1.60004
G1 X98.308 Y106.478 E1.62782
G1 X98.359 Y107.329 E1.65617
G1 X98.467 Y108.149 E1.68368
G1 X98.637 Y108.973 E1.71166
G1 X98.87 Y109.803 E1.74034
G1 X99.152 Y110.581 E1.76786
G1 X99.497 Y111.354 E1.79602
G1 X99.894 Y112.096 E1.824
G1 X100.343 Y112.809 E1.85203
G1 X100.836 Y113.477 E1.87964
G1 X101.395 Y114.132 E1.90828
G1 X101.976 Y114.72 E1.93578
G1 X102.602 Y115.269 E1.96347
G1 X103.278 Y115.779 E1.99164
G1 X104.002 Y116.249 E2.02035
G1 X104.72 Y116.646 E2.04763
G1 X105.486 Y116.999 E2.07569
G1 X106.283 Y117.299 E2.10401
G1 X107.085 Y117.536 E2.13182
G1 X107.901 Y117.716 E2.15962
G1 X108.74 Y117.837 E2.18781
G1 X109.583 Y117.898 E2.21592
G1 X110.417 Y117.898 E2.24366
G1 X111.26 Y117.837 E2.27177
G1 X112.099 Y117.716 E2.29997
G1 X112.915 Y117.536 E2.32776
G1 X113.717 Y117.299 E2.35558
G1 X114.508 Y117.001 E2.38369
G1 X115.278 Y116.647 E2.41188
G1 X116.004 Y116.245 E2.43948
G1 X116.722 Y115.779 E2.46795
G1 X117.398 Y115.269 E2.49611
G1 X118.024 Y114.72 E2.52381
G1 X118.605 Y114.132 E2.5513
G1 X119.164 Y113.477 E2.57994
G1 X119.657 Y112.809 E2.60755
G1 X120.106 Y112.096 E2.63558
G1 X120.503 Y111.354 E2.66357
G1 X120.849 Y110.579 E2.6918
G1 X121.125 Y109.814 E2.71885
G1 X121.369 Y108.956 E2.74851
G1 X121.532 Y108.158 E2.7756
G1 X121.641 Y107.33 E2.80338
G1 X121.692 Y106.478 E2.83177
G1 X121.682 Y105.643 E2.85954
G1 X121.611 Y104.81 E2.88735
G1 X121.482 Y103.992 E2.91489
G1 X121.285 Y103.142 E2.94391
G1 X121.043 Y102.359 E2.97117
G1 X120.731 Y101.562 E2.99964
G1 X120.371 Y100.805 E3.02752
G1 X119.818 Y99.832 E3.06474
G1 X119.463 Y99.126 E3.09103
G1 X119.181 Y98.388 E3.1173
G1 X118.976 Y97.626 E3.14355
G1 X118.848 Y96.846 E3.16984
G1 X118.8 Y95.979 E3.19872
G1 X118.8 Y81.825 E3.66948
G1 X118.84 Y81.036 E3.69576
G1 X118.959 Y80.256 E3.722
G1 X119.157 Y79.491 E3.74828
G1 X119.431 Y78.751 E3.77453
G1 X119.779 Y78.042 E3.8008
G1 X120.197 Y77.371 E3.82709
G1 X120.68 Y76.747 E3.85334
G1 X121.223 Y76.174 E3.87959
G1 X121.822 Y75.659 E3.90587
G1 X122.47 Y75.208 E3.93213
G1 X123.161 Y74.824 E3.95842
G1 X123.886 Y74.512 E3.98467
G1 X124.639 Y74.275 E4.01093
G1 X125.413 Y74.116 E4.03721
G1 X126.198 Y74.035 E4.06346
G1 X126.988 Y74.035 E4.08973
G1 X127.774 Y74.114 E4.11601
G1 X128.547 Y74.272 E4.14225
G1 X129.301 Y74.508 E4.16852
G1 X130.027 Y74.818 E4.19478
G1 X130.718 Y75.201 E4.22106
G1 X131.175 Y75.508 E4.23937
G1 X132.586 Y76.53 E4.29732
G1 X132.961 Y76.819 E4.31306
G1 X134.325 Y77.939 E4.37176
G1 X134.665 Y78.235 E4.38676
G1 X135.947 Y79.418 E4.44478
G1 X136.283 Y79.747 E4.46042
G1 X137.492 Y81.006 E4.51847
G1 X137.8 Y81.347 E4.53376
G1 X138.932 Y82.674 E4.59177
G1 X139.221 Y83.034 E4.60712
G1 X140.272 Y84.425 E4.66511
G1 X140.54 Y84.801 E4.68047
G1 X141.509 Y86.255 E4.73858
G1 X141.749 Y86.641 E4.7537
G1 X142.63 Y88.146 E4.8117
G1 X142.854 Y88.555 E4.82721
G1 X143.644 Y90.111 E4.88525
G1 X143.842 Y90.532 E4.90073
G1 X144.538 Y92.133 E4.95879
G1 X144.708 Y92.556 E4.97395
G1 X145.309 Y94.194 E5.03199
G1 X145.456 Y94.637 E5.04751
G1 X145.958 Y96.308 E5.10554
G1 X146.077 Y96.75 E5.12077
G1 X146.48 Y98.447 E5.17878
G1 X146.573 Y98.899 E5.19413
G1 X146.875 Y100.618 E5.25218
G1 X146.942 Y101.074 E5.26751
G1 X147.142 Y102.807 E5.32553
G1 X147.181 Y103.268 E5.34092
G1 X147.278 Y105.011 E5.39898
G1 X147.29 Y105.467 E5.41415
G1 X147.285 Y107.195 E5.47162
G1 X147.27 Y107.663 E5.4872
G1 X147.159 Y109.422 E5.54582
G1 X147.117 Y109.871 E5.56082
G1 X146.909 Y111.584 E5.61821
G1 X146.838 Y112.05 E5.63389
G1 X146.52 Y113.785 E5.69256
G1 X146.425 Y114.231 E5.70772
G1 X146.015 Y115.908 E5.76514
G1 X145.89 Y116.361 E5.78077
G1 X145.369 Y118.045 E5.8394
G1 X145.226 Y118.465 E5.85416
G1 X144.622 Y120.085 E5.91166
G1 X144.442 Y120.526 E5.92751
G1 X143.727 Y122.136 E5.9861
G1 X143.527 Y122.551 E6.00142
G1 X142.726 Y124.101 E6.05945
G1 X142.502 Y124.505 E6.07481
G1 X141.61 Y126.006 E6.13289
G1 X141.363 Y126.395 E6.14821
G1 X140.385 Y127.839 E6.20622
G1 X140.123 Y128.203 E6.22114
G1 X139.074 Y129.575 E6.27858
G1 X138.773 Y129.944 E6.29442
G1 X137.619 Y131.276 E6.35304
G1 X137.308 Y131.615 E6.36834
G1 X136.09 Y132.864 E6.42636
G1 X135.756 Y133.186 E6.44179
G1 X134.465 Y134.361 E6.49985
G1 X134.116 Y134.661 E6.51516
G1 X132.758 Y135.758 E6.57322
G1 X132.398 Y136.032 E6.58827
G1 X130.979 Y137.048 E6.64632
G1 X130.59 Y137.309 E6.6619
G1 X129.114 Y138.237 E6.71989
G1 X128.717 Y138.47 E6.7352
G1 X127.186 Y139.311 E6.79329
G1 X126.781 Y139.519 E6.80844
G1 X125.263 Y140.241 E6.86435
G1 X124.891 Y140.406 E6.87788
G1 X124.15 Y140.712 E6.90455
G1 X123.268 Y141.069 E6.93619
G1 X122.901 Y141.207 E6.94923
G1 X122.125 Y141.476 E6.97655
G1 X121.222 Y141.78 E7.00824
G1 X120.868 Y141.89 E7.02057
G1 X120.068 Y142.117 E7.04823
G1 X119.151 Y142.367 E7.07984
G1 X118.829 Y142.448 E7.09089
G1 X118.099 Y142.614 E7.11578
G1 X117.037 Y142.837 E7.15188
G1 X116.742 Y142.893 E7.16186
G1 X116.005 Y143.018 E7.18673
G1 X115.841 Y143.044 E7.19225
G1 X114.9 Y143.183 E7.22389
G1 X114.637 Y143.217 E7.23271
G1 X113.895 Y143.301 E7.25754
G1 X113.707 Y143.32 E7.26383
G1 X112.76 Y143.404 E7.29545
G1 X112.509 Y143.423 E7.30382
G1 X111.763 Y143.465 E7.32867
G1 X111.555 Y143.474 E7.3356
G1 X110.604 Y143.502 E7.36724
G1 X110.384 Y143.505 E7.37456
G1 X109.637 Y143.506 E7.39941
G1 X109.397 Y143.503 E7.40739
G1 X108.446 Y143.475 E7.43903
G1 X108.238 Y143.466 E7.44596
G1 X107.492 Y143.424 E7.47081
G1 X107.241 Y143.405 E7.47918
G1 X106.294 Y143.321 E7.5108
G1 X106.106 Y143.302 E7.51709
G1 X105.364 Y143.218 E7.54192
G1 X105.101 Y143.184 E7.55074
G1 X104.16 Y143.045 E7.58238
G1 X103.996 Y143.019 E7.5879
G1 X103.259 Y142.894 E7.61277
G1 X102.964 Y142.838 E7.62275
G1 X101.91 Y142.617 E7.65857
G1 X101.181 Y142.452 E7.68343
G1 X100.848 Y142.368 E7.69485
G1 X99.84 Y142.092 E7.72961
G1 X99.123 Y141.887 E7.75442
G1 X98.781 Y141.781 E7.76633
G1 X97.809 Y141.454 E7.80044
G1 X97.103 Y141.209 E7.82529
G1 X96.736 Y141.071 E7.83833
G1 X95.794 Y140.69 E7.87213
G1 X95.103 Y140.404 E7.897
G1 X94.736 Y140.241 E7.91036
G1 X93.203 Y139.512 E7.96682
G1 X92.792 Y139.302 E7.98217
G1 X91.262 Y138.46 E8.04025
G1 X90.868 Y138.227 E8.05548
G1 X89.392 Y137.298 E8.11348
G1 X89.002 Y137.036 E8.12911
G1 X87.585 Y136.02 E8.1871
G1 X87.229 Y135.749 E8.20198
G1 X85.871 Y134.652 E8.26005
G1 X85.515 Y134.346 E8.27566
G1 X84.225 Y133.169 E8.33374
G1 X83.893 Y132.848 E8.3491
G1 X82.676 Y131.598 E8.40713
G1 X82.368 Y131.263 E8.42226
G1 X81.226 Y129.944 E8.48029
G1 X80.927 Y129.576 E8.49606
G1 X79.867 Y128.19 E8.5541
G1 X79.601 Y127.821 E8.56923
G1 X78.624 Y126.376 E8.62724
G1 X78.381 Y125.992 E8.64236
G1 X77.489 Y124.491 E8.70043
G1 X77.26 Y124.078 E8.71614
G1 X76.461 Y122.527 E8.77417
G1 X76.265 Y122.117 E8.78928
G1 X75.558 Y120.523 E8.84728
G1 X75.381 Y120.09 E8.86284
G1 X74.77 Y118.454 E8.92092
G1 X74.623 Y118.022 E8.9361
G1 X74.109 Y116.354 E8.99415
G1 X73.986 Y115.909 E9.00951
G1 X73.572 Y114.215 E9.06751
G1 X73.476 Y113.765 E9.08281
G1 X73.162 Y112.047 E9.1409
G1 X73.092 Y111.589 E9.15631
G1 X72.881 Y109.858 E9.21431
G1 X72.839 Y109.397 E9.2297
G1 X72.731 Y107.657 E9.28769
G1 X72.716 Y107.201 E9.30286
G1 X72.71 Y105.455 E9.36094
G1 X72.722 Y104.99 E9.37641
G1 X72.82 Y103.247 E9.43447
G1 X72.86 Y102.786 E9.44986
G1 X73.061 Y101.053 E9.50789
G1 X73.127 Y100.603 E9.52301
G1 X73.429 Y98.883 E9.5811
G1 X73.525 Y98.419 E9.59686
G1 X73.93 Y96.724 E9.65482
G1 X74.047 Y96.289 E9.6698
G1 X74.55 Y94.618 E9.72784
G1 X74.697 Y94.177 E9.7433
G1 X75.299 Y92.538 E9.80138
G1 X75.47 Y92.112 E9.81665
G1 X76.167 Y90.512 E9.87469
G1 X76.364 Y90.094 E9.89006
G1 X77.154 Y88.539 E9.94807
G1 X77.377 Y88.13 E9.96357
G1 X78.259 Y86.624 E10.02162
G1 X78.502 Y86.236 E10.03684
G1 X79.471 Y84.784 E10.0949
G1 X79.738 Y84.409 E10.11021
G1 X80.79 Y83.018 E10.16822
G1 X81.081 Y82.656 E10.18367
G1 X82.214 Y81.33 E10.24168
G1 X82.525 Y80.988 E10.25705
G1 X83.736 Y79.73 E10.31513
G0 F6000 X84.024 Y80.007
G1 F1200 X84.336 Y79.701 E10.32967
G1 X85.619 Y78.517 E10.38773
G1 X85.946 Y78.232 E10.40216
G1 X87.295 Y77.126 E10.46018
G1 X87.645 Y76.857 E10.47486
G1 X89.058 Y75.833 E10.5329
G1 X89.703 Y75.415 E10.55846
G1 X90.388 Y75.066 E10.58403
G1 X91.106 Y74.789 E10.60963
G1 X91.849 Y74.589 E10.63522
G1 X92.608 Y74.467 E10.66079
G1 X93.376 Y74.425 E10.68637
G1 X94.145 Y74.463 E10.71198
G1 X94.905 Y74.58 E10.73756
G1 X95.649 Y74.775 E10.76314
G1 X96.368 Y75.046 E10.78869
G1 X97.056 Y75.391 E10.81429
G1 X97.704 Y75.805 E10.83987
G1 X98.306 Y76.285 E10.86548
G1 X98.854 Y76.824 E10.89104
G1 X99.344 Y77.417 E10.91663
G1 X99.769 Y78.058 E10.94221
G1 X100.126 Y78.739 E10.96778
G1 X100.41 Y79.454 E10.99337
G1 X100.618 Y80.195 E11.01897
G1 X100.748 Y80.953 E11.04455
G1 X100.8 Y81.825 E11.0736
G1 X100.8 Y95.979 E11.54437
G1 X100.76 Y96.747 E11.56995
G1 X100.641 Y97.507 E11.59553
G1 X100.443 Y98.25 E11.62111
G1 X100.169 Y98.969 E11.6467
G1 X99.834 Y99.634 E11.67146
G1 X99.277 Y100.614 E11.70895
G1 X98.897 Y101.415 E11.73844
G1 X98.583 Y102.215 E11.76703
G1 X98.327 Y103.043 E11.79585
G1 X98.121 Y103.927 E11.82604
G1 X97.994 Y104.743 E11.85351
G1 X97.919 Y105.632 E11.88318
G1 X97.908 Y106.484 E11.91152
G1 X97.96 Y107.363 E11.94081
G1 X98.074 Y108.228 E11.96983
G1 X98.246 Y109.062 E11.99815
G1 X98.489 Y109.925 E12.02797
G1 X98.781 Y110.73 E12.05645
G1 X99.139 Y111.532 E12.08566
G1 X99.545 Y112.292 E12.11432
G1 X100.015 Y113.038 E12.14365
G1 X100.524 Y113.728 E12.17217
G1 X101.096 Y114.397 E12.20144
G1 X101.704 Y115.013 E12.23023
G1 X102.359 Y115.588 E12.25922
G1 X103.047 Y116.107 E12.28788
G1 X103.786 Y116.586 E12.31717
G1 X104.543 Y117.005 E12.34595
G1 X105.328 Y117.367 E12.3747
G1 X106.154 Y117.678 E12.40406
G1 X106.982 Y117.922 E12.43277
G1 X107.839 Y118.111 E12.46196
G1 X108.696 Y118.235 E12.49076
G1 X109.568 Y118.298 E12.51983
G1 X110.432 Y118.298 E12.54857
G1 X111.304 Y118.235 E12.57765
G1 X112.161 Y118.111 E12.60645
G1 X113.018 Y117.922 E12.63564
G1 X113.846 Y117.678 E12.66435
G1 X114.673 Y117.366 E12.69375
G1 X115.455 Y117.007 E12.72237
G1 X116.215 Y116.586 E12.75126
G1 X116.953 Y116.107 E12.78053
G1 X117.641 Y115.588 E12.80919
G1 X118.296 Y115.013 E12.83818
G1 X118.904 Y114.397 E12.86697
G1 X119.476 Y113.728 E12.89624
G1 X119.985 Y113.038 E12.92476
G1 X120.455 Y112.292 E12.95409
G1 X120.861 Y111.532 E12.98275
G1 X121.22 Y110.727 E13.01206
G1 X121.508 Y109.933 E13.04015
G1 X121.758 Y109.049 E13.07071
G1 X121.925 Y108.237 E13.09828
G1 X122.04 Y107.363 E13.1276
G1 X122.092 Y106.483 E13.15692
G1 X122.082 Y105.632 E13.18523
G1 X122.008 Y104.757 E13.21443
G1 X121.874 Y103.91 E13.24296
G1 X121.673 Y103.044 E13.27252
G1 X121.418 Y102.217 E13.30131
G1 X121.102 Y101.412 E13.33007
G1 X120.723 Y100.614 E13.35945
G1 X120.166 Y99.634 E13.39695
G1 X119.821 Y98.946 E13.42255
G1 X119.55 Y98.227 E13.4481
G1 X119.354 Y97.483 E13.47369
G1 X119.237 Y96.722 E13.4993
G1 X119.2 Y95.979 E13.52404
G1 X119.2 Y81.825 E13.99481
G1 X119.24 Y81.057 E14.02039
G1 X119.359 Y80.297 E14.04597
G1 X119.557 Y79.554 E14.07155
G1 X119.831 Y78.835 E14.09714
G1 X120.178 Y78.149 E14.12271
G1 X120.594 Y77.502 E14.14829
G1 X121.075 Y76.902 E14.17387
G1 X121.616 Y76.355 E14.19946
G1 X122.211 Y75.867 E14.22505
G1 X122.853 Y75.444 E14.25062
G1 X123.536 Y75.089 E14.27622
G1 X124.251 Y74.808 E14.30178
G1 X124.993 Y74.602 E14.32739
G1 X125.751 Y74.474 E14.35296
G1 X126.519 Y74.425 E14.37855
G1 X127.287 Y74.457 E14.40412
G1 X128.048 Y74.568 E14.4297
G1 X128.794 Y74.758 E14.4553
G1 X129.515 Y75.024 E14.48086
G1 X130.206 Y75.363 E14.50646
G1 X130.941 Y75.832 E14.53546
G1 X132.352 Y76.854 E14.59341
G1 X132.707 Y77.128 E14.60832
G1 X134.071 Y78.248 E14.66702
G1 X134.393 Y78.529 E14.68124
G1 X135.675 Y79.712 E14.73926
G1 X135.995 Y80.024 E14.75412
G1 X137.204 Y81.283 E14.81218
G1 X137.496 Y81.606 E14.82666
G1 X138.628 Y82.933 E14.88467
G1 X138.902 Y83.275 E14.89925
G1 X139.953 Y84.666 E14.95723
G1 X140.207 Y85.023 E14.97181
G1 X141.176 Y86.477 E15.02992
G1 X141.404 Y86.843 E15.04426
G1 X142.285 Y88.348 E15.10227
G1 X142.497 Y88.736 E15.11697
G1 X143.287 Y90.292 E15.17501
G1 X143.475 Y90.692 E15.18971
G1 X144.171 Y92.293 E15.24778
G1 X144.332 Y92.694 E15.26215
G1 X144.933 Y94.332 E15.32018
G1 X145.073 Y94.752 E15.33491
G1 X145.575 Y96.423 E15.39294
G1 X145.688 Y96.842 E15.40737
G1 X146.091 Y98.539 E15.46538
G1 X146.179 Y98.969 E15.47998
G1 X146.481 Y100.688 E15.53803
G1 X146.544 Y101.12 E15.55255
G1 X146.744 Y102.853 E15.61057
G1 X146.782 Y103.29 E15.62516
G1 X146.879 Y105.033 E15.68323
G1 X146.89 Y105.465 E15.6976
G1 X146.885 Y107.193 E15.75507
G1 X146.87 Y107.638 E15.76988
G1 X146.759 Y109.397 E15.8285
G1 X146.72 Y109.823 E15.84273
G1 X146.512 Y111.536 E15.90012
G1 X146.445 Y111.978 E15.91499
G1 X146.127 Y113.713 E15.97366
G1 X146.036 Y114.136 E15.98805
G1 X145.626 Y115.813 E16.04547
G1 X145.507 Y116.243 E16.06031
G1 X144.986 Y117.927 E16.11894
G1 X144.851 Y118.325 E16.13292
G1 X144.247 Y119.945 E16.19042
G1 X144.076 Y120.363 E16.20544
G1 X143.361 Y121.973 E16.26404
G1 X143.172 Y122.367 E16.27857
G1 X142.371 Y123.917 E16.3366
G1 X142.158 Y124.3 E16.35118
G1 X141.266 Y125.801 E16.40925
G1 X141.032 Y126.171 E16.42381
G1 X140.054 Y127.615 E16.48182
G1 X139.806 Y127.96 E16.49595
G1 X138.757 Y129.332 E16.55339
G1 X138.471 Y129.683 E16.56845
G1 X137.317 Y131.015 E16.62707
G1 X137.022 Y131.335 E16.64154
G1 X135.804 Y132.584 E16.69957
G1 X135.487 Y132.891 E16.71425
G1 X134.196 Y134.066 E16.77231
G1 X133.865 Y134.349 E16.78679
G1 X132.507 Y135.446 E16.84485
G1 X132.165 Y135.707 E16.85916
G1 X130.746 Y136.723 E16.91721
G1 X130.377 Y136.971 E16.932
G1 X128.901 Y137.899 E16.98999
G1 X128.525 Y138.12 E17.00449
G1 X126.994 Y138.961 E17.06259
G1 X126.609 Y139.158 E17.07697
G1 X125.091 Y139.88 E17.13288
G1 X124.738 Y140.037 E17.14573
G1 X123.999 Y140.341 E17.17231
