;FLAVOR:Marlin
;TIME:10766
;Filament used: 7.3891m
;Layer height: 0.2
;MINX:64.2
;MINY:72.2
;MINZ:0.2
;MAXX:155.8
;MAXY:147.8
;MAXZ:20
;Generated with Creality Slicer 4.8.2-291
M140 S60
M105
M190 S60
M104 S200
M105
M109 S200
M82 ;absolute extrusion mode

G28 ;Home

G92 E0 ;Reset Extruder
G1 Z2.0 F3000 ;Move Z Axis up
G1 X10.1 Y20 Z0.28 F5000.0 ;Move to start position
G1 X10.1 Y200.0 Z0.28 F1500.0 E15 ;Draw the first line
G1 X10.4 Y200.0 Z0.28 F5000.0 ;Move to side a little
G1 X10.4 Y20 Z0.28 F1500.0 E30 ;Draw the second line
G92 E0 ;Reset Extruder
G1 Z2.0 F3000 ;Move Z Axis up

G92 E0
G92 E0
G1 F1500 E-4
;LAYER_COUNT:100
;LAYER:0
M107
G0 F6000 X66.623 Y74.349 Z0.2
;TYPE:SKIRT
G1 F1500 E0
G1 F1200 X67.222 Y73.834 E0.02627
G1 X67.87 Y73.383 E0.05253
G1 X68.561 Y72.999 E0.07883
G1 X69.286 Y72.687 E0.10508
G1 X70.039 Y72.45 E0.13133
G1 X70.813 Y72.291 E0.15761
G1 X71.598 Y72.21 E0.18386
G1 X72 Y72.2 E0.19724
G1 X102 Y72.2 E1.19504
G1 X102.789 Y72.24 E1.22132
G1 X103.569 Y72.359 E1.24756
G1 X104.334 Y72.557 E1.27384
G1 X105.074 Y72.831 E1.30009
G1 X105.783 Y73.179 E1.32636
G1 X106.454 Y73.597 E1.35265
G1 X107.078 Y74.08 E1.3789
G1 X107.651 Y74.623 E1.40515
G1 X108.166 Y75.222 E1.43143
G1 X108.617 Y75.87 E1.45768
G1 X109.001 Y76.561 E1.48398
G1 X109.313 Y77.286 E1.51023
G1 X109.55 Y78.039 E1.53649
G1 X109.709 Y78.813 E1.56277
G1 X109.79 Y79.598 E1.58901
G1 X109.8 Y80 E1.60239
G1 X109.8 Y140 E3.598
G1 X109.76 Y140.789 E3.62427
G1 X109.641 Y141.569 E3.65052
G1 X109.443 Y142.334 E3.6768
G1 X109.169 Y143.074 E3.70304
G1 X108.821 Y143.783 E3.72931
G1 X108.403 Y144.454 E3.75561
G1 X107.92 Y145.078 E3.78185
G1 X107.377 Y145.651 E3.80811
G1 X106.778 Y146.166 E3.83438
G1 X106.13 Y146.617 E3.86064
G1 X105.439 Y147.001 E3.88693
G1 X104.714 Y147.313 E3.91319
G1 X103.961 Y147.55 E3.93944
G1 X103.187 Y147.709 E3.96572
G1 X102.402 Y147.79 E3.99197
G1 X102 Y147.8 E4.00535
G1 X72 Y147.8 E5.00315
G1 X71.211 Y147.76 E5.02943
G1 X70.431 Y147.641 E5.05567
G1 X69.666 Y147.443 E5.08195
G1 X68.926 Y147.169 E5.1082
G1 X68.217 Y146.821 E5.13447
G1 X67.546 Y146.403 E5.16076
G1 X66.922 Y145.92 E5.187
G1 X66.349 Y145.377 E5.21326
G1 X65.834 Y144.778 E5.23953
G1 X65.383 Y144.13 E5.26579
G1 X64.999 Y143.439 E5.29209
G1 X64.687 Y142.714 E5.31834
G1 X64.45 Y141.961 E5.34459
G1 X64.291 Y141.187 E5.37087
G1 X64.21 Y140.402 E5.39712
G1 X64.2 Y140 E5.4105
G1 X64.2 Y80 E7.40611
G1 X64.24 Y79.211 E7.43238
G1 X64.359 Y78.431 E7.45862
G1 X64.557 Y77.666 E7.48491
G1 X64.831 Y76.926 E7.51115
G1 X65.179 Y76.217 E7.53742
G1 X65.597 Y75.546 E7.56371
G1 X66.08 Y74.922 E7.58996
G1 X66.623 Y74.349 E7.61622
G0 F6000 X67.016 Y74.53
G1 F1200 X67.611 Y74.042 E7.64181
G1 X68.253 Y73.619 E7.66738
G1 X68.936 Y73.264 E7.69298
G1 X69.651 Y72.983 E7.71854
G1 X70.393 Y72.777 E7.74415
G1 X71.151 Y72.649 E7.76972
G1 X72 Y72.6 E7.798
G1 X102 Y72.6 E8.79581
G1 X102.768 Y72.64 E8.82138
G1 X103.528 Y72.759 E8.84697
G1 X104.271 Y72.957 E8.87254
G1 X104.99 Y73.231 E8.89814
G1 X105.676 Y73.578 E8.9237
G1 X106.323 Y73.994 E8.94929
G1 X106.923 Y74.475 E8.97487
G1 X107.47 Y75.016 E9.00045
G1 X107.958 Y75.611 E9.02605
G1 X108.381 Y76.253 E9.05162
G1 X108.736 Y76.936 E9.07722
G1 X109.017 Y77.651 E9.10277
G1 X109.223 Y78.393 E9.12839
G1 X109.351 Y79.151 E9.15395
G1 X109.4 Y80 E9.18224
G1 X109.4 Y140 E11.17785
G1 X109.36 Y140.768 E11.20343
G1 X109.241 Y141.528 E11.22901
G1 X109.043 Y142.271 E11.25459
G1 X108.769 Y142.99 E11.28018
G1 X108.422 Y143.676 E11.30575
G1 X108.006 Y144.323 E11.33133
G1 X107.525 Y144.923 E11.35691
G1 X106.984 Y145.47 E11.3825
G1 X106.389 Y145.958 E11.40809
G1 X105.747 Y146.381 E11.43366
G1 X105.064 Y146.736 E11.45926
G1 X104.349 Y147.017 E11.48482
G1 X103.607 Y147.223 E11.51043
G1 X102.849 Y147.351 E11.536
G1 X102 Y147.4 E11.56428
G1 X72 Y147.4 E12.56208
G1 X71.232 Y147.36 E12.58766
G1 X70.472 Y147.241 E12.61325
G1 X69.729 Y147.043 E12.63882
G1 X69.01 Y146.769 E12.66442
G1 X68.324 Y146.422 E12.68998
G1 X67.677 Y146.006 E12.71557
G1 X67.077 Y145.525 E12.74115
G1 X66.53 Y144.984 E12.76673
G1 X66.042 Y144.389 E12.79233
G1 X65.619 Y143.747 E12.8179
G1 X65.264 Y143.064 E12.8435
G1 X64.983 Y142.349 E12.86905
G1 X64.777 Y141.607 E12.89467
G1 X64.649 Y140.849 E12.92023
G1 X64.6 Y140 E12.94852
G1 X64.6 Y80 E14.94413
G1 X64.64 Y79.232 E14.9697
G1 X64.759 Y78.472 E14.99529
G1 X64.957 Y77.729 E15.02087
G1 X65.231 Y77.01 E15.04646
G1 X65.578 Y76.324 E15.07203
G1 X65.994 Y75.677 E15.09761
G1 X66.475 Y75.077 E15.12319
G1 X67.016 Y74.53 E15.14878
G0 F6000 X67.408 Y74.716
G1 F1200 X67.998 Y74.257 E15.17364
G1 X68.634 Y73.862 E15.19854
G1 X69.308 Y73.538 E15.22341
G1 X70.013 Y73.288 E15.24829
G1 X70.741 Y73.114 E15.27319
G1 X71.483 Y73.019 E15.29807
G1 X72 Y73 E15.31527
G1 X102 Y73 E16.31308
G1 X102.747 Y73.04 E16.33796
G1 X103.485 Y73.159 E16.36282
G1 X104.207 Y73.357 E16.38772
G1 X104.903 Y73.63 E16.41259
G1 X105.566 Y73.977 E16.43748
G1 X106.189 Y74.392 E16.46238
G1 X106.763 Y74.871 E16.48724
G1 X107.284 Y75.408 E16.51213
G1 X107.743 Y75.998 E16.53699
G1 X108.138 Y76.634 E16.56189
G1 X108.462 Y77.308 E16.58676
G1 X108.712 Y78.013 E16.61164
G1 X108.886 Y78.741 E16.63654
G1 X108.981 Y79.483 E16.66142
G1 X109 Y80 E16.67862
G1 X109 Y140 E18.67423
G1 X108.96 Y140.747 E18.69911
G1 X108.841 Y141.485 E18.72398
G1 X108.643 Y142.207 E18.74888
G1 X108.37 Y142.903 E18.77374
G1 X108.023 Y143.566 E18.79863
G1 X107.608 Y144.189 E18.82353
G1 X107.129 Y144.763 E18.8484
G1 X106.592 Y145.284 E18.87328
G1 X106.002 Y145.743 E18.89814
G1 X105.366 Y146.138 E18.92304
G1 X104.692 Y146.462 E18.94792
G1 X103.987 Y146.712 E18.9728
G1 X103.259 Y146.886 E18.99769
G1 X102.517 Y146.981 E19.02257
G1 X102 Y147 E19.03978
G1 X72 Y147 E20.03758
G1 X71.253 Y146.96 E20.06246
G1 X70.515 Y146.841 E20.08733
G1 X69.793 Y146.643 E20.11223
G1 X69.097 Y146.37 E20.13709
G1 X68.434 Y146.023 E20.16198
G1 X67.811 Y145.608 E20.18688
G1 X67.237 Y145.129 E20.21175
G1 X66.716 Y144.592 E20.23663
G1 X66.257 Y144.002 E20.26149
G1 X65.862 Y143.366 E20.2864
G1 X65.538 Y142.692 E20.31127
G1 X65.288 Y141.987 E20.33615
G1 X65.114 Y141.259 E20.36104
G1 X65.019 Y140.517 E20.38592
G1 X65 Y140 E20.40313
G1 X65 Y80 E22.39874
G1 X65.04 Y79.253 E22.42362
G1 X65.159 Y78.515 E22.44848
G1 X65.357 Y77.793 E22.47338
G1 X65.63 Y77.097 E22.49825
G1 X65.977 Y76.434 E22.52314
G1 X66.392 Y75.811 E22.54804
G1 X66.871 Y75.237 E22.5729
G1 X67.408 Y74.716 E22.59779
G0 F6000 X67.265 Y75.402
G1 F1200 X67.799 Y74.909 E22.62196
G1 X68.384 Y74.479 E22.64611
G1 X69.013 Y74.115 E22.67028
G1 X69.678 Y73.822 E22.69445
G1 X70.371 Y73.604 E22.71861
G1 X71.083 Y73.464 E22.74275
G1 X72 Y73.4 E22.77332
G1 X102 Y73.4 E23.77112
G1 X102.725 Y73.44 E23.79527
G1 X103.442 Y73.559 E23.81945
G1 X104.141 Y73.757 E23.84361
G1 X104.814 Y74.03 E23.86777
G1 X105.453 Y74.375 E23.89192
G1 X106.05 Y74.789 E23.91608
G1 X106.598 Y75.265 E23.94023
G1 X107.091 Y75.799 E23.9644
G1 X107.521 Y76.384 E23.98855
G1 X107.885 Y77.013 E24.01272
G1 X108.178 Y77.678 E24.03689
G1 X108.396 Y78.371 E24.06105
G1 X108.536 Y79.083 E24.08518
G1 X108.6 Y80 E24.11576
G1 X108.6 Y140 E26.11137
G1 X108.56 Y140.725 E26.13552
G1 X108.441 Y141.442 E26.15969
G1 X108.243 Y142.141 E26.18385
G1 X107.97 Y142.814 E26.20801
G1 X107.625 Y143.453 E26.23216
G1 X107.211 Y144.05 E26.25633
G1 X106.735 Y144.598 E26.28047
G1 X106.201 Y145.091 E26.30464
G1 X105.616 Y145.521 E26.32879
G1 X104.987 Y145.885 E26.35296
G1 X104.322 Y146.178 E26.37713
G1 X103.629 Y146.396 E26.40129
G1 X102.917 Y146.536 E26.42543
G1 X102 Y146.6 E26.456
G1 X72 Y146.6 E27.45381
G1 X71.275 Y146.56 E27.47796
G1 X70.558 Y146.441 E27.50213
G1 X69.859 Y146.243 E27.52629
G1 X69.186 Y145.97 E27.55045
G1 X68.547 Y145.625 E27.5746
G1 X67.95 Y145.211 E27.59877
G1 X67.402 Y144.735 E27.62291
G1 X66.909 Y144.201 E27.64708
G1 X66.479 Y143.616 E27.67123
G1 X66.115 Y142.987 E27.6954
G1 X65.822 Y142.322 E27.71957
G1 X65.604 Y141.629 E27.74373
G1 X65.464 Y140.917 E27.76787
G1 X65.4 Y140 E27.79844
G1 X65.4 Y80 E29.79405
G1 X65.44 Y79.275 E29.8182
G1 X65.559 Y78.558 E29.84237
G1 X65.757 Y77.859 E29.86654
G1 X66.03 Y77.186 E29.89069
G1 X66.375 Y76.547 E29.91484
G1 X66.789 Y75.95 E29.93901
G1 X67.265 Y75.402 E29.96315
G0 F6000 X67.659 Y75.573
G1 F1200 X68.189 Y75.109 E29.98658
G1 X68.768 Y74.709 E30.00999
G1 X69.389 Y74.377 E30.03341
G1 X70.043 Y74.117 E30.05681
G1 X70.723 Y73.933 E30.08024
G1 X71.419 Y73.827 E30.10366
G1 X72 Y73.8 E30.12301
G1 X102 Y73.8 E31.12081
G1 X102.703 Y73.84 E31.14423
G1 X103.397 Y73.959 E31.16765
G1 X104.072 Y74.157 E31.19105
G1 X104.721 Y74.429 E31.21445
G1 X105.335 Y74.774 E31.23788
G1 X105.906 Y75.185 E31.26127
G1 X106.427 Y75.659 E31.2847
G1 X106.891 Y76.189 E31.30813
G1 X107.291 Y76.768 E31.33154
G1 X107.623 Y77.389 E31.35496
G1 X107.883 Y78.043 E31.37837
G1 X108.067 Y78.723 E31.4018
G1 X108.173 Y79.419 E31.42521
G1 X108.2 Y80 E31.44456
G1 X108.2 Y140 E33.44017
G1 X108.16 Y140.703 E33.46359
G1 X108.041 Y141.397 E33.487
G1 X107.843 Y142.072 E33.5104
G1 X107.571 Y142.721 E33.53381
G1 X107.226 Y143.335 E33.55723
G1 X106.815 Y143.906 E33.58063
G1 X106.341 Y144.427 E33.60406
G1 X105.811 Y144.891 E33.62749
G1 X105.232 Y145.291 E33.65089
G1 X104.611 Y145.623 E33.67431
G1 X103.957 Y145.883 E33.69772
G1 X103.277 Y146.067 E33.72115
G1 X102.581 Y146.173 E33.74457
G1 X102 Y146.2 E33.76391
G1 X72 Y146.2 E34.76172
G1 X71.297 Y146.16 E34.78514
G1 X70.603 Y146.041 E34.80856
G1 X69.928 Y145.843 E34.83195
G1 X69.279 Y145.571 E34.85536
G1 X68.665 Y145.226 E34.87878
G1 X68.094 Y144.815 E34.90218
G1 X67.573 Y144.341 E34.92561
G1 X67.109 Y143.811 E34.94904
G1 X66.709 Y143.232 E34.97244
G1 X66.377 Y142.611 E34.99586
G1 X66.117 Y141.957 E35.01927
G1 X65.933 Y141.277 E35.0427
G1 X65.827 Y140.581 E35.06612
G1 X65.8 Y140 E35.08546
G1 X65.8 Y80 E37.08107
G1 X65.84 Y79.297 E37.10449
G1 X65.959 Y78.603 E37.12791
G1 X66.157 Y77.928 E37.15131
G1 X66.429 Y77.279 E37.17471
G1 X66.774 Y76.665 E37.19814
G1 X67.185 Y76.094 E37.22154
G1 X67.659 Y75.573 E37.24496
G0 F6000 X68.053 Y75.751
G1 F1200 X68.578 Y75.317 E37.26762
G1 X69.15 Y74.948 E37.29026
G1 X69.762 Y74.649 E37.31291
G1 X70.404 Y74.424 E37.33554
G1 X71.069 Y74.275 E37.35821
G1 X72 Y74.2 E37.38927
G1 X102 Y74.2 E38.38708
G1 X102.68 Y74.24 E38.40973
G1 X103.35 Y74.359 E38.43237
G1 X104.002 Y74.556 E38.45502
G1 X104.626 Y74.828 E38.47766
G1 X105.214 Y75.172 E38.50032
G1 X105.758 Y75.582 E38.52297
G1 X106.249 Y76.053 E38.5456
G1 X106.683 Y76.578 E38.56826
G1 X107.052 Y77.15 E38.5909
G1 X107.351 Y77.762 E38.61355
G1 X107.576 Y78.404 E38.63618
G1 X107.725 Y79.069 E38.65885
G1 X107.8 Y80 E38.68991
G1 X107.8 Y140 E40.68552
G1 X107.76 Y140.68 E40.70818
G1 X107.641 Y141.35 E40.73081
G1 X107.444 Y142.002 E40.75346
G1 X107.172 Y142.626 E40.7761
G1 X106.828 Y143.214 E40.79876
G1 X106.418 Y143.758 E40.82142
G1 X105.947 Y144.249 E40.84405
G1 X105.422 Y144.683 E40.8667
G1 X104.85 Y145.052 E40.88934
G1 X104.238 Y145.351 E40.912
G1 X103.596 Y145.576 E40.93463
G1 X102.931 Y145.725 E40.95729
G1 X102 Y145.8 E40.98836
G1 X72 Y145.8 E41.98616
G1 X71.32 Y145.76 E42.00882
G1 X70.65 Y145.641 E42.03145
G1 X69.998 Y145.444 E42.0541
G1 X69.374 Y145.172 E42.07674
G1 X68.786 Y144.828 E42.0994
G1 X68.242 Y144.418 E42.12206
G1 X67.751 Y143.947 E42.14469
G1 X67.317 Y143.422 E42.16734
G1 X66.948 Y142.85 E42.18998
G1 X66.649 Y142.238 E42.21264
G1 X66.424 Y141.596 E42.23527
G1 X66.275 Y140.931 E42.25793
G1 X66.2 Y140 E42.289
G1 X66.2 Y80 E44.28461
G1 X66.24 Y79.32 E44.30726
G1 X66.359 Y78.65 E44.32989
G1 X66.556 Y77.998 E44.35255
G1 X66.828 Y77.374 E44.37519
G1 X67.172 Y76.786 E44.39785
G1 X67.582 Y76.242 E44.4205
G1 X68.053 Y75.751 E44.44313
G0 F6000 X68.445 Y75.935
G1 F1200 X68.965 Y75.534 E44.46497
G1 X69.529 Y75.198 E44.48681
G1 X70.131 Y74.934 E44.50867
G1 X70.76 Y74.744 E44.53053
G1 X71.407 Y74.633 E44.55236
G1 X72 Y74.6 E44.57211
G1 X102 Y74.6 E45.56992
G1 X102.656 Y74.64 E45.59178
G1 X103.302 Y74.759 E45.61362
G1 X103.929 Y74.956 E45.63548
G1 X104.527 Y75.228 E45.65733
G1 X105.088 Y75.57 E45.67919
G1 X105.603 Y75.978 E45.70104
G1 X106.065 Y76.445 E45.72289
G1 X106.466 Y76.965 E45.74473
G1 X106.802 Y77.529 E45.76656
G1 X107.066 Y78.131 E45.78843
G1 X107.256 Y78.76 E45.81028
G1 X107.367 Y79.407 E45.83212
G1 X107.4 Y80 E45.85187
G1 X107.4 Y140 E47.84748
G1 X107.36 Y140.656 E47.86934
G1 X107.241 Y141.302 E47.89118
G1 X107.044 Y141.929 E47.91304
G1 X106.772 Y142.527 E47.93489
G1 X106.43 Y143.088 E47.95675
G1 X106.022 Y143.603 E47.9786
G1 X105.555 Y144.065 E48.00045
G1 X105.035 Y144.466 E48.02229
G1 X104.471 Y144.802 E48.04412
G1 X103.869 Y145.066 E48.06599
G1 X103.24 Y145.256 E48.08784
G1 X102.593 Y145.367 E48.10968
G1 X102 Y145.4 E48.12943
G1 X72 Y145.4 E49.12723
G1 X71.344 Y145.36 E49.14909
G1 X70.698 Y145.241 E49.17094
G1 X70.071 Y145.044 E49.1928
G1 X69.473 Y144.772 E49.21465
G1 X68.912 Y144.43 E49.2365
G1 X68.397 Y144.022 E49.25836
G1 X67.935 Y143.555 E49.28021
G1 X67.534 Y143.035 E49.30205
G1 X67.198 Y142.471 E49.32388
G1 X66.934 Y141.869 E49.34574
G1 X66.744 Y141.24 E49.3676
G1 X66.633 Y140.593 E49.38943
G1 X66.6 Y140 E49.40919
G1 X66.6 Y80 E51.40479
G1 X66.64 Y79.344 E51.42665
G1 X66.759 Y78.698 E51.4485
G1 X66.956 Y78.071 E51.47036
G1 X67.228 Y77.473 E51.49221
G1 X67.57 Y76.912 E51.51406
G1 X67.978 Y76.397 E51.53592
G1 X68.445 Y75.935 E51.55777
G0 F6000 X68.373 Y76.559
G1 F1200 X68.836 Y76.129 E51.57878
G1 X69.35 Y75.76 E51.59983
G1 X69.906 Y75.46 E51.62084
G1 X70.495 Y75.232 E51.64185
G1 X71.109 Y75.08 E51.66288
G1 X72 Y75 E51.69264
G1 X102 Y75 E52.69044
G1 X102.631 Y75.04 E52.71147
G1 X103.252 Y75.159 E52.7325
G1 X103.852 Y75.356 E52.75351
G1 X104.424 Y75.627 E52.77456
G1 X104.956 Y75.967 E52.79556
G1 X105.441 Y76.373 E52.81659
G1 X105.871 Y76.836 E52.83761
G1 X106.24 Y77.35 E52.85866
G1 X106.54 Y77.906 E52.87967
G1 X106.768 Y78.495 E52.90068
G1 X106.92 Y79.109 E52.92171
G1 X107 Y80 E52.95147
G1 X107 Y140 E54.94708
G1 X106.96 Y140.631 E54.9681
G1 X106.841 Y141.252 E54.98914
G1 X106.644 Y141.852 E55.01014
G1 X106.373 Y142.424 E55.03119
G1 X106.033 Y142.956 E55.05219
G1 X105.627 Y143.441 E55.07323
G1 X105.164 Y143.871 E55.09424
G1 X104.65 Y144.24 E55.11529
G1 X104.094 Y144.54 E55.1363
G1 X103.505 Y144.768 E55.15731
G1 X102.891 Y144.92 E55.17835
G1 X102 Y145 E55.2081
G1 X72 Y145 E56.20591
G1 X71.369 Y144.96 E56.22693
G1 X70.748 Y144.841 E56.24796
G1 X70.148 Y144.644 E56.26897
G1 X69.576 Y144.373 E56.29002
G1 X69.044 Y144.033 E56.31102
G1 X68.559 Y143.627 E56.33206
G1 X68.129 Y143.164 E56.35307
G1 X67.76 Y142.65 E56.37412
G1 X67.46 Y142.094 E56.39513
G1 X67.232 Y141.505 E56.41614
G1 X67.08 Y140.891 E56.43718
G1 X67 Y140 E56.46693
G1 X67 Y80 E58.46254
G1 X67.04 Y79.369 E58.48357
G1 X67.159 Y78.748 E58.5046
G1 X67.356 Y78.148 E58.5256
G1 X67.627 Y77.576 E58.54665
G1 X67.967 Y77.044 E58.56765
G1 X68.373 Y76.559 E58.58869
G0 F6000 X68.767 Y76.728
G1 F1200 X69.225 Y76.331 E58.60885
G1 X69.732 Y75.998 E58.62903
G1 X70.278 Y75.734 E58.6492
G1 X70.854 Y75.545 E58.66936
G1 X71.45 Y75.433 E58.68953
G1 X72 Y75.4 E58.70786
G1 X102 Y75.4 E59.70566
G1 X102.605 Y75.44 E59.72583
G1 X103.199 Y75.559 E59.74597
G1 X103.773 Y75.755 E59.76615
G1 X104.316 Y76.026 E59.78633
G1 X104.819 Y76.365 E59.80651
G1 X105.272 Y76.767 E59.82665
G1 X105.669 Y77.225 E59.84681
G1 X106.002 Y77.732 E59.86699
G1 X106.266 Y78.278 E59.88716
G1 X106.455 Y78.854 E59.90732
G1 X106.567 Y79.45 E59.92749
G1 X106.6 Y80 E59.94582
G1 X106.6 Y140 E61.94142
G1 X106.56 Y140.605 E61.96159
G1 X106.441 Y141.199 E61.98174
G1 X106.245 Y141.773 E62.00191
G1 X105.974 Y142.316 E62.0221
G1 X105.635 Y142.819 E62.04227
G1 X105.233 Y143.272 E62.06242
